Infinity-Icons/Infinity-Dark-Icons/apps/48/joplin.svg

<svg height="48" viewBox="0 0 48 48" width="48" xmlns="http://www.w3.org/2000/svg" xmlns:xlink="http://www.w3.org/1999/xlink"><linearGradient id="a" gradientUnits="userSpaceOnUse" x1="4" x2="44" y1="4" y2="44"><stop offset="0" stop-color="#3498db"/><stop offset="1" stop-color="#0352b5"/></linearGradient><linearGradient id="b" gradientUnits="userSpaceOnUse" x1="4" x2="44" y1="39.5" y2="39.5"><stop offset="0" stop-color="#194f95"/><stop offset="1" stop-color="#114795"/></linearGradient><linearGradient id="c" gradientUnits="userSpaceOnUse" x1="15" x2="38" y1="13" y2="36"><stop offset="0" stop-color="#194f95"/><stop offset="1" stop-color="#194f95" stop-opacity="0"/></linearGradient><g stroke-width="2"><rect fill="url(#a)" height="40" ry="8" width="40" x="4" y="4"/><path d="m4 35v1c0 4.432 3.568 8 8 8h24c4.432 0 8-3.568 8-8v-1c0 4.432-3.568 8-8 8h-24c-4.432 0-8-3.568-8-8z" fill="url(#b)"/><path d="m23 11v4l3 3v3.888672 3.111328l-4-4c-2.3869 0-4.675381.896134-6.363281 2.490234-1.6878 1.5941-2.636719 3.755466-2.636719 6.009766 0 2.1732.881531 4.260435 2.457031 5.835938l8.664063 8.664062h19.878906v-23l-10-10z" fill="url(#c)"/><path d="m23 11v4l.707031.707031h2.292969v6.181641 7.111328c0 1.0609-.421675 2.078025-1.171875 2.828125-.7501.7502-1.767225 1.171875-2.828125 1.171875-.892784 0-1.755328-.298175-2.453125-.839844-.541668-.697796-.839844-1.560341-.839844-2.453125 0-1.0609.421675-2.078025 1.171875-2.828125.7501-.7502 1.767225-1.171875 2.828125-1.171875v-4l-.707031-.707031c-2.3869 0-4.675381.896134-6.363281 2.490234-1.6878 1.5941-2.636719 3.755466-2.636719 6.009766 0 2.1732.881531 4.260437 2.457031 5.835938l.08789.08789c.0017.0016.0042.0023.0059.0039l.466797.466797.146484.148438c.0588.0588.118988.116428.179688.173828 1.6879 1.5941 3.976381 2.490234 6.363281 2.490234 2.387 0 4.675382-.896134 6.363281-2.490234 1.687801-1.594 2.636719-3.755466 2.636719-6.009766-.0072-.167-.01951-.3337-.03711-.5h.03711v-14h3v-4l-.707071-.707025zm.707031.707031h10.292969v3.292969h-3v14h-.03711c.0176.1663.02991.333.03711.5 0 2.2543-.948919 4.415666-2.636719 6.009766-1.6879 1.5941-3.976381 2.490234-6.363281 2.490234-2.302279 0-4.513068-.832697-6.181641-2.322266-1.358304-1.525672-2.111328-3.461842-2.111328-5.470703 0-2.2543.948919-4.415665 2.636719-6.009765 1.520309-1.435822 3.528292-2.304468 5.65625-2.462891v3.265625c-1.0609 0-2.078025.421675-2.828125 1.171875-.7502.7501-1.171875 1.767225-1.171875 2.828125s.421675 2.078025 1.171875 2.828125l.636719.636719.07031.07031c.7501.7502 1.767225 1.171875 2.828125 1.171875s2.078025-.421675 2.828125-1.171875c.7502-.7501 1.171875-1.767225 1.171875-2.828125v-7.111326-6.888672l-.707029-.707031h-2.292969z" fill="#194f95" opacity=".65"/><path d="m23 11v4h3v6.888672 7.111328a4 4 0 0 1 -4 4 4 4 0 0 1 -4-4 4 4 0 0 1 4-4v-4a9 8.5 0 0 0 -9 8.5 9 8.5 0 0 0 9 8.5 9 8.5 0 0 0 9-8.5 9 8.5 0 0 0 -.03711-.5h.03711v-14h3v-4z" fill="#fcfcfc"/></g></svg>

<?xml version="1.0" encoding="UTF-8" standalone="no"?>
<svg
   height="48"
   viewBox="0 0 48 48"
   width="48"
   version="1.1"
   id="svg29"
   sodipodi:docname="joplin.svg"
   inkscape:version="1.2.1 (9c6d41e410, 2022-07-14)"
   xmlns:inkscape="http://www.inkscape.org/namespaces/inkscape"
   xmlns:sodipodi="http://sodipodi.sourceforge.net/DTD/sodipodi-0.dtd"
   xmlns="http://www.w3.org/2000/svg"
   xmlns:svg="http://www.w3.org/2000/svg">
  <defs
     id="defs33" />
  <sodipodi:namedview
     id="namedview31"
     pagecolor="#ffffff"
     bordercolor="#666666"
     borderopacity="1.0"
     inkscape:showpageshadow="2"
     inkscape:pageopacity="0.0"
     inkscape:pagecheckerboard="0"
     inkscape:deskcolor="#d1d1d1"
     showgrid="false"
     inkscape:zoom="4.9166667"
     inkscape:cx="24"
     inkscape:cy="24.305085"
     inkscape:window-width="1920"
     inkscape:window-height="1004"
     inkscape:window-x="0"
     inkscape:window-y="0"
     inkscape:window-maximized="1"
     inkscape:current-layer="svg29" />
  <linearGradient
     id="a"
     gradientUnits="userSpaceOnUse"
     x1="4"
     x2="44"
     y1="4"
     y2="44">
    <stop
       offset="0"
       stop-color="#3498db"
       id="stop2" />
    <stop
       offset="1"
       stop-color="#0352b5"
       id="stop4" />
  </linearGradient>
  <linearGradient
     id="b"
     gradientUnits="userSpaceOnUse"
     x1="4"
     x2="44"
     y1="39.5"
     y2="39.5">
    <stop
       offset="0"
       stop-color="#194f95"
       id="stop7" />
    <stop
       offset="1"
       stop-color="#114795"
       id="stop9" />
  </linearGradient>
  <linearGradient
     id="c"
     gradientUnits="userSpaceOnUse"
     x1="15"
     x2="38"
     y1="13"
     y2="36">
    <stop
       offset="0"
       stop-color="#194f95"
       id="stop12" />
    <stop
       offset="1"
       stop-color="#194f95"
       stop-opacity="0"
       id="stop14" />
  </linearGradient>
  <g
     stroke-width="2"
     id="g27"
     transform="matrix(1.05,0,0,1.05,-1.2,-1.2)">
    <rect
       fill="url(#a)"
       height="40"
       ry="20"
       width="40"
       x="4"
       y="4"
       id="rect17"
       rx="20"
       style="fill:url(#a)" />
    <path
       d="m 23,11 v 4 l 3,3 V 21.888672 25 l -4,-4 c -2.3869,0 -4.675381,0.896134 -6.363281,2.490234 C 13.948919,25.084334 13,27.2457 13,29.5 c 0,2.1732 0.881531,4.260435 2.457031,5.835938 L 24.121094,44 H 44 V 21 L 34,11 Z"
       fill="url(#c)"
       id="path21"
       style="fill:url(#c)" />
    <path
       d="m 23,11 v 4 l 0.707031,0.707031 H 26 V 21.888672 29 c 0,1.0609 -0.421675,2.078025 -1.171875,2.828125 C 24.078025,32.578325 23.0609,33 22,33 c -0.892784,0 -1.755328,-0.298175 -2.453125,-0.839844 -0.541668,-0.697796 -0.839844,-1.560341 -0.839844,-2.453125 0,-1.0609 0.421675,-2.078025 1.171875,-2.828125 0.7501,-0.7502 1.767225,-1.171875 2.828125,-1.171875 v -4 L 22,21 c -2.3869,0 -4.675381,0.896134 -6.363281,2.490234 C 13.948919,25.084334 13,27.2457 13,29.5 c 0,2.1732 0.881531,4.260437 2.457031,5.835938 l 0.08789,0.08789 c 0.0017,0.0016 0.0042,0.0023 0.0059,0.0039 l 0.466797,0.466797 0.146484,0.148438 c 0.0588,0.0588 0.118988,0.116428 0.179688,0.173828 1.6879,1.5941 3.976381,2.490234 6.363281,2.490234 2.387,0 4.675382,-0.896134 6.363281,-2.490234 1.687801,-1.594 2.636719,-3.755466 2.636719,-6.009766 -0.0072,-0.167 -0.01951,-0.3337 -0.03711,-0.5 h 0.03711 v -14 h 3 v -4 L 34,11 Z m 0.707031,0.707031 H 34 V 15 h -3 v 14 h -0.03711 c 0.0176,0.1663 0.02991,0.333 0.03711,0.5 0,2.2543 -0.948919,4.415666 -2.636719,6.009766 C 26.675381,37.103866 24.3869,38 22,38 c -2.302279,0 -4.513068,-0.832697 -6.181641,-2.322266 -1.358304,-1.525672 -2.111328,-3.461842 -2.111328,-5.470703 0,-2.2543 0.948919,-4.415665 2.636719,-6.009765 C 17.864059,22.761444 19.872042,21.892798 22,21.734375 V 25 c -1.0609,0 -2.078025,0.421675 -2.828125,1.171875 C 18.421675,26.921975 18,27.9391 18,29 c 0,1.0609 0.421675,2.078025 1.171875,2.828125 l 0.636719,0.636719 0.07031,0.07031 c 0.7501,0.7502 1.767225,1.171875 2.828125,1.171875 1.0609,0 2.078025,-0.421675 2.828125,-1.171875 0.7502,-0.7501 1.171875,-1.767225 1.171875,-2.828125 V 22.595703 15.707031 L 26,15 h -2.292969 z"
       fill="#194f95"
       opacity="0.65"
       id="path23" />
    <path
       d="m 23,11 v 4 h 3 V 21.888672 29 a 4,4 0 0 1 -4,4 4,4 0 0 1 -4,-4 4,4 0 0 1 4,-4 V 21 A 9,8.5 0 0 0 13,29.5 9,8.5 0 0 0 22,38 9,8.5 0 0 0 31,29.5 9,8.5 0 0 0 30.96289,29 H 31 V 15 h 3 v -4 z"
       fill="#fcfcfc"
       id="path25" />
  </g>
</svg>
